img/svg/manual.svg

<svg width="18" height="18" viewBox="0 0 18 18" xmlns="http://www.w3.org/2000/svg">
    <path
        d="M15.0601 3.44996V14.46H5.07006C3.96006 14.46 3.06006 13.56 3.06006 12.45V4.46996C3.06006 3.35996 3.96006 2.45996 5.07006 2.45996H13.0501V10.47H5.07006C4.50006 10.47 4.05006 10.92 4.05006 11.49V12.45C4.05006 13.02 4.50006 13.47 5.07006 13.47H14.0401V3.44996H15.0601ZM13.0501 11.46H5.07006V12.45H13.0801V11.46H13.0501Z" />
</svg>

<svg width="18" height="18" viewBox="0 0 18 18" xmlns="http://www.w3.org/2000/svg"><path d="M15.06 3.45v11.01H5.07c-1.11 0-2.01-.9-2.01-2.01V4.47c0-1.11.9-2.01 2.01-2.01h7.98v8.01H5.07c-.57 0-1.02.45-1.02 1.02v.96c0 .57.45 1.02 1.02 1.02h8.97V3.45h1.02zm-2.01 8.01H5.07v.99h8.01v-.99h-.03z"/></svg>
